X:1
T:Outside the Fold
T:Outside the Fold
T:Marion E. Ogden, 1895
T:Edward Willet, 1891
T:Public Domain Courtesy of the Cyber Hymnal™
C:Marion E. Ogden, 1895
Z:Public Domain
Z:Courtesy of the Cyber Hymnal™
%%score 1 ( 2 3 )
L:1/8
Q:1/4=100
M:6/8
K:A
V:1 treble 
V:2 bass 
V:3 bass 
V:1
 [CE]2 [CE] ([DF][CE])[A,C] | [CE]2 [CA] [Ec]3 | [Ec]3 [DB]2 [DG] | [CA]2 [DF] [CE]3 | %4
w: 1.~Weak and sin- * ful|tho’ we are,|This glor- ious|hope we hold,|
w: 2.~Tho’ we oft- * en|lose our way,|In dark- est|night and cold,|
w: 3.~He will save * us|from our sin,|And all its|dread a- larms,|
 [CE]2 [CE] ([DF][CE])[A,C] | [CE]2 [CA] [Ec]3 | [DB]3 [Ec]2 [DB] | [CA]3- [CA]2 z | %8
w: Je- sus will * not|leave His lambs|Out- side the|fold. *|
w: Je- sus will * not|let us stay|Out- side the|fold. *|
w: He will keep * us|safe with- in|His lov- ing|arms. *|
 [EB]3 [EA]2 [EB] | [Ec]3- [Ec]2 z | [DB]3 [FA]2 [DF] | [CE]3- [CE]2 z | %12
w: Out- side the|fold, *|out- side the|fold. *|
w: Out- side the|fold, *|out- side the|fold. *|
w: Safe in His|arms, *|safe in His|arms. *|
 [CE]2 [CE] ([DF][CE])[A,C] | [CE]2 [CA] [Ec]3 | [DB]3 [Ec]2 [DB] | [CA]6 |] %16
w: Je- sus will * not|leave His lambs|Out- side the|fold.|
w: Je- sus will * not|let us stay|Out- side the|fold.|
w: He will keep * us|safe with- in|His lov- ing|arms.|
V:2
 [A,,A,]2 [A,,A,] [A,,A,]2 [A,,E,] | [A,,A,]2 [A,,A,] [A,,A,]3 | [E,A,]3 [E,G,]2 [E,B,] | %3
 [A,,A,]2 [A,,A,] [A,,A,]3 | [A,,A,]2 [A,,A,] [A,,A,]2 [A,,E,] | [A,,A,]2 [A,,A,] [A,,A,]3 | %6
 [E,G,]3 [E,G,]2 [E,G,] | [A,,A,]3- [A,,A,]2 z | [E,G,]3 [C,A,]2 [E,G,] | A,3- A,2 z | %10
 [D,F,]3 [D,A,]2 [D,A,] | [A,,A,]3- [A,,A,]2 z | [A,,A,]2 [A,,A,] [A,,A,]2 [A,,E,] | %13
 [A,,A,]2 [A,,A,] [A,,A,]3 | [E,G,]3 [E,G,]2 [E,G,] | [A,,A,]6 |] %16
V:3
 x6 | x6 | x6 | x6 | x6 | x6 | x6 | x6 | x6 | A,3- A,2 x | x6 | x6 | x6 | x6 | x6 | x6 |] %16

